X:7
T:Whiskey Before Breakfast.
M:C|
L:1/8
Q:340
C:Trad. Walter Magee  Learned from a magazine years ago.
R:reel
Z:posted by John Erdman 5/97
K:D
|: "D"DEFG A2 AB|AGFE D2 EF|"G"GFEG "D"FEDF|"A7"EFED CB, A,2|
"D"DEFG A2 AB|AGFE D2 EF|"G"GFEG "D"FEDF|"A7"EDCE "D"D4 :|
|:"D"DEFA d2 de|"D"dB A2 FE D2|"Em"e2 ee e2 ef|gf e2 "A"cB A2|
"D"defd "A"cdec| "G"BcdB "A"AG F2|"G"GABG "D"FGAF|"A7"EDCE  "D"D2 D2 :|
